X: 1
T:Skye Dance
M:C
L:1/8
Q:80
C:Trad. arr. Bruce Gandy
S:Reel
K:HP
|: {gAGAG}A2{g}eA{gcd}c2{g}B{d}A|
{gBd}B2{gBd}B2{Gdc}d2{g}f2|
{gAGAG}A2{g}eA{gcd}c2{g}B{d}A|  !
{gBd}B2{gBd}B2d{g}A{d}Ae:| |:
ae{A}ed{gcd}c2{g}B{d}A|
{gAGAG}A2{g}eA{gcd}c2{gef}e2|  !
ae{A}ed{gcd}c2{g}B{d}A|
{gBd}B2{gBd}B2d{g}A{d}Ae:|
